!!!COM: Beethoven
!!!OTL: 32 Variationen fur das pianoforte
!!!Variation: Variation 3 a
**function	**harm	**kern	**kern
*	*	*clefF4	*clefG2
*	*	*k[b-e-a-]	*k[b-e-a-]
*M3/4	*M3/4	*M3/4	*M3/4
*c:	*c:	*c:	*c:
=25	=25	=25	=25
2.T	2.i	16CCLL	16eee-LL
.	.	16EE-	16ccc
.	.	16GG	16gg
.	.	16CJJ	16ee-JJ
.	.	16E-LL	16ccLL
.	.	16G	16g
.	.	16c	16e-
.	.	16cJJ	16e-JJ
.	.	16cLL	16e-LL
.	.	16c	16e-
.	.	16c	16e-
.	.	16cJJ	16e-JJ
=26	=26	=26	=26
2.T	2.Vb	16BLL	16dLL
.	.	16G	16g
.	.	16D	16b
.	.	16BBJJ	16ddJJ
.	.	16GGLL	16ggLL
.	.	16DD	16bb
.	.	16BBB	16ddd
.	.	16BBBJJ	16dddJJ
.	.	16BBBLL	16dddLL
.	.	16BBB	16ddd
.	.	16BBB	16ddd
.	.	16BBBJJ	16dddJJ
=27	=27	=27	=27
2.T	2.-Vb	16BBB-LL	16ddd-LL
.	.	16DD-	16bb-
.	.	16GG-	16gg-
.	.	16BB-JJ	16dd-JJ
.	.	16D-LL	16b-LL
.	.	16G-	16g-
.	.	16B-	16d-
.	.	16B-JJ	16d-JJ
.	.	16B-LL	16d-LL
.	.	16B-	16d-
.	.	16B-	16d-
.	.	16B-JJ	16d-JJ
=28	=28	=28	=28
2.P	2.IVb	16ALL	16cLL
.	.	16F	16f
.	.	16C	16a
.	.	16AAJJ	16ccJJ
.	.	16FFLL	16ffLL
.	.	16CC	16aa
.	.	16AAA	16ccc
.	.	16AAAJJ	16cccJJ
.	.	16AAALL	16cccLL
.	.	16AAA	16ccc
.	.	16AAA	16ccc
.	.	16AAAJJ	16cccJJ
=29	=29	=29	=29
2.P	2.ivb	16AAA-LL	16cccLL
.	.	16CC	16aa-
.	.	16FF	16ff
.	.	16AA-JJ	16ccJJ
.	.	16CLL	16a-LL
.	.	16F	16f
.	.	16A-	16c
.	.	16A-JJ	16cJJ
.	.	16A-LL	16cLL
.	.	16A-	16c
.	.	16A-	16c
.	.	16A-JJ	16cJJ
=30	=30	=30	=30
4D	4V	(16GLL	(16BLL
.	.	16D	16d
.	.	16BB	16g
.	.	16GGJJ	16bJJ
2D	2viioD7d	16FLL	16a-LL
.	.	16D	16b
.	.	16BB	16dd
.	.	16AA-JJ	16ffJJ
.	.	16FFLL	16aa-LL
.	.	16DD	16bb
.	.	16BBB	16ddd
.	.	16AAA-JJ)	16fffJJ)
=31	=31	=31	=31
2D	2viioD7d	20FFFLL	20aaa-LL
.	.	20AAA-	20fff
.	.	20BBB	20ddd
.	.	20DD	20bb
.	.	20FFJJ	20aa-JJ
.	.	16AA-LL	16ffLL
.	.	16FF	16bb
.	.	16DD	16ddd
.	.	16BBBJJ	16fffJJ
4D	4V	16GGGLL	16gggLL
.	.	16BBB	16ddd
.	.	16DD	16bb
.	.	16GGJJ	16ggJJ
=32	=32	=32	=32
2.T	2.i	16CCLL	16eee-LL
.	.	16EE-	16ccc
.	.	16GG	16gg
.	.	16CJJ	16ee-JJ
.	.	16E-LL	8cc
.	.	16C	.
.	.	16GG	8r
.	.	16EE-JJ	.
.	.	8CC	4r
.	.	8r	.
*-	*-	*-	*-
